X: 20446
T: John Joe Harnett's
R: slide
M: 12/8
K: Adorian
|ABA e2 d d2 B G3|ABA e2 d def g2 B|
ABA e2 d d2 B G2 g|1 efg e2 d B2 A EFG:|2 efg e2 d B2 A A3||
|:e2 d e2 f g2 f e2 d|B^cd e2 f g2 f g2 a|
bag agf g2 f e2 d|1 efg e2 d B2 A A3:|2 efg e2 d B2 A EFG||

